;FLAVOR:Marlin
;TIME:2423.91
;Filament used:2.59295m
;Material Diameter:1.75
;Material Density:1.24
;Filament Cost:0.154672
;Filament Weight:7.733614
;Filament Length:2.592954
;Layer height:0.2
;MINX:2.385
;MINY:2.132
;MINZ:0.2
;MAXX:180.19
;MAXY:125.893
;MAXZ:20.401
;OuterWall Time:511.207
;InnerWall Time:327.088
;Skin Time:989.534
;Support Time:8.61008
;SkirtBrim Time:0
;Infill Time:66.6768
;Support Infills Time:0
;Combing Time:161.068
;Retraction Time:359.727
;PrimeTower Time:0
;;;;;;;;;;;;;;;;;;;;;;;;;;;;;;;;;;;;;;;;;;;;;;;;;;;;;;;;;;;;;;;;;;;;;;;;
;Creality Print GCode Generated by CXEngine
;CRSLICE_GIT_HASH:58ee74d
;Creality Print Version : V4.3.8.6984
;CXEngine Release Time:2023-12-04 18:16:29
;Gcode Generated Time:2024-08-04 18:26:00
;----------Machine Config--------------
;Machine Name:Ender-3 V3 SE
;Machine Height:250
;Machine Width:220
;Machine Depth:220
;Material Type:PLA
;Material Name:CR-PLA_1.75
;Number of Extruders:1
;ExtruderParams[0] Nozzle Diameter:1000
;----------Profile Config---------------
;Wall Thickness:0.8
;Top/Bottom Thickness:0.8
;Out Wall Line Width:0.42
;Inner Wall Line Width:0.45
;Inital Height:200
;Wall Line Count:2
;Infill Line Distance:8
;Infill Pattern:grid
;Infill Sparse Density:10
;Infill Wipe Distance:0
;Print Temperature:205
;Bed Temperature:58
;Support Enable:true
;Support Density:15
;Support Angle:60
;Adhesion Type:none
;machine is belt:false
;machine belt offset:10
;machine belt offset Y:0
;Raft Base Line Spacing:1.6
;Wait Heatup Sync:true
;Enable Ironing:false
;Material Type:PLA
;Max volumetric speed:20
;Preview Img Type:png
;Screen Size:Sermoon D3
;----------Shell Config----------------
;Outer Wall Wipe Distance:2000
;Outer Inset First:false
;Infill Before Walls:false
;Infill Overlap:0.09
;Fill Gaps Between Walls:everywhere
;Minimum Infill Area:30
;Top Surface Skin Layer:0
;Top Layers:4
;Z Seam Alignment:sharpest_corner
;Seam Corner Preference:z_seam_corner_inner
;Z Seam X:110
;Z Seam Y:220
;Horizontal Expansion:0
;Top/Bottom Pattern:zigzag
;Ironing Pattern:zigzag
;Vase Model:false
;----------Support Config----------------
;Support Type:everywhere
;Support Pattern:zigzag
;Support Infill Layer Thickness:0.2
;Minimum Support Area:1
;Enable Support Roof:true
;Support Roof Thickness:0.8
;Support Roof Pattern:lines
;Connect Support Lines:0
;Connect Support ZigZags:1
;Minimum Support X/Y Distance:0.2
;Support Line Distance:2.67
; ---------PrintSpeed & Travel----------
;Enable Print Cool:true
;Avoid Printed Parts Traveling:true
;Enable Retraction:true
;Retraction Distance:1.2
;Retraction Speed:30
;Retraction Prime Speed:30
;Maximum Retraction Count:100
;Minimum Extrusion Distance Window:0.8
;Z Hop When Retracted:true
;Z Hop Height:0.4
;Retract Before Outer Wall:true

;Outer Wall Speed:60
;Inner Wall Speed:90
;Infill Speed:180
;Top/Bottom Speed:50
;Travel Speed:150
;Initial Layer Speed:30
;Skirt/Brim Speed:25
;Prime Tower Speed:60
;Outer Wall Acceleration:1000
;Inner Wall Acceleration:2000
;Infill Acceleration:2500
;Top/Bottom Acceleration:2500
;Travel Acceleration:2500
;Initial Layer Print Acceleration:500
;Initial Layer Travel Acceleration:500
;Skirt/Brim Acceleration:500
;Combing Mode:off
; --------SpecialModel&Mesh Fixes--------
;Union Overlapping Volum:true
;Remove All Holes:false
;Maximum Travel Resolution:0.25
;Maximum Deviation:0.05
;Maximum Model Angle:0.872665
;IS Mold Print:false
;Make Overhang Printable:false
;Enable Coasting:false
;Coasting Volumes:0.064
;Coasting Speed:0.9
;Raft AirGap:0.25
;Layer0 ZOverLap:0.13
;Adaptive Layers:0
;---------------------End of Head--------------------------
M140 S58
M105
M190 S58
M104 S205
M82 ;absolute extrusion mode
M220 S100 ;Reset Feedrate
M221 S100 ;Reset Flowrate

G28 ;Home

G92 E0 ;Reset Extruder
G1 Z2.0 F3000 ;Move Z Axis up
G1 X-2.1 Y20 Z0.28 F5000.0 ;Move to start position
M109 S205.000000
G1 X-2.1 Y145.0 Z0.28 F1500.0 E15 ;Draw the first line
G1 X-2.4 Y145.0 Z0.28 F5000.0 ;Move to side a little
G1 X-2.4 Y20 Z0.28 F1500.0 E30 ;Draw the second line
G92 E0  ;Reset Extruder
G1 E-1.0000 F1800 ;Retract a bit
G1 Z2.0 F3000 ;Move Z Axis up
G1 E0.0000 F1800 

G92 E0
G92 E0
G1 F1800 E-1.2
;LAYER_COUNT:41

;LAYER:0
M106 S0
M204 S500
;;retract;;
G1 F1800 E0
G1 F1800 E-1.2
G0 F4800 X2.385 Y2.132 Z20.401
G0 X111.614 Y99.758 Z0.6
;TYPE:SUPPORT
G1 F600 Z0.2
G1 F1800 E0
G1 F1416.7 X111.805 Y100.119 E0.01595
G1 F1307.5 X111.805 Y102.275 E0.10716
G1 F1400 X111.805 Y104.431 E0.19235
G1 F1569.1 X111.483 Y104.903 E0.2125
;;retract move;;
G1 F3840 X111.617 Y102.908 E-0.9275
G1 F1800 E-0.9875
G0 F4800 X109.411 Y105.225 Z0.6
G0 X108.518 Y106.164
G1 F600 Z0.2
G1 F1800 E0.2125
G1 F1578 X108.195 Y106.635 E0.23252
G1 F1421.5 X108.195 Y108.915 E0.32124
G1 F1354.4 X108.195 Y111.195 E0.41436
G1 F1293.3 X108.195 Y113.475 E0.51189
G1 F1354.4 X108.278 Y113.711 E0.5221
G1 F1458.9 X108.358 Y113.849 E0.52815
;;retract move;;
G1 F3840 X108.313 Y111.85 E-0.61185
G1 F1800 E-0.67185
G0 F4800 X110.48 Y114.204 Z0.6
G0 X111.483 Y115.293
G1 F600 Z0.2
G1 F1800 E0.52815
G1 F1578 X111.805 Y115.768 E0.54827
G1 F1404.7 X111.805 Y117.923 E0.63313
G1 F1307.5 X111.805 Y120.078 E0.7243
G1 F1397.6 X111.705 Y120.307 E0.73419
G1 F1590.1 X111.613 Y120.441 E0.73985
;;retract move;;
G1 F3840 X111.695 Y118.443 E-0.40015
G1 F1800 E-0.46015
G0 F4800 X113.701 Y115.95 Z0.6
;MESH:0_0
G0 X115.274 Y113.996
;TYPE:WALL-OUTER
G1 F600 Z0.2
G1 F1800 E0.73985
G1 X114.9 Y113.623 E0.75913
G1 X110.029 Y113.619 E0.93689
G1 X109.475 Y113.504 E0.95754
G1 X109.375 Y113.334 E0.96474
G1 X109.375 Y106.863 E1.2009
G1 X109.476 Y106.694 E1.20808
G1 X110.029 Y106.579 E1.22869
G1 X114.811 Y106.57 E1.40321
G1 X115.217 Y106.272 E1.42159
G1 X115.278 Y106.116 E1.4277
G1 X115.281 Y100.105 E1.64707
G1 X115.474 Y99.894 E1.65751
G1 X150.253 Y96.994 E2.93116
G1 X150.492 Y97.089 E2.94055
G1 X158.282 Y113.967 E3.61895
G1 X158.423 Y114.226 E3.62971
G1 X158.611 Y114.467 E3.64087
G1 X158.857 Y114.696 E3.65313
G1 X159.091 Y114.854 E3.66344
G1 X159.412 Y115.002 E3.67634
G1 X159.668 Y115.075 E3.68605
G1 X159.983 Y115.113 E3.69763
G1 X160.308 Y115.102 E3.7095
G1 X160.597 Y115.046 E3.72024
G1 X160.889 Y114.941 E3.73157
G1 X171.895 Y109.862 E4.17393
G1 X172.172 Y109.709 E4.18548
G1 X172.424 Y109.507 E4.19727
G1 X172.63 Y109.28 E4.20845
G1 X172.782 Y109.052 E4.21845
G1 X172.93 Y108.732 E4.23132
G1 X173.008 Y108.452 E4.24193
G1 X173.042 Y108.158 E4.25273
G1 X173.028 Y107.811 E4.2654
G1 X172.976 Y107.549 E4.27515
G1 X172.868 Y107.252 E4.28668
G1 X167.592 Y95.808 E4.74658
G1 X167.686 Y95.543 E4.75684
G1 X176.891 Y94.774 E5.09394
G1 X177.294 Y94.774 E5.10865
G1 X177.692 Y94.842 E5.12339
G1 X178.073 Y94.972 E5.13808
G1 X178.418 Y95.159 E5.1524
G1 X178.741 Y95.409 E5.1673
G1 X179.01 Y95.702 E5.18182
G1 X179.225 Y96.032 E5.19619
G1 X179.389 Y96.405 E5.21106
G1 X179.486 Y96.784 E5.22534
G1 X179.52 Y97.194 E5.24036
G1 X179.521 Y120.61 E6.09492
G1 X179.454 Y121.383 E6.12323
G1 X179.27 Y122.117 E6.15085
G1 X178.96 Y122.823 E6.17899
G1 X178.547 Y123.457 E6.2066
G1 X178.03 Y124.017 E6.23442
G1 X177.421 Y124.49 E6.26256
G1 X176.756 Y124.85 E6.29015
G1 X176.031 Y125.099 E6.31813
G1 X175.274 Y125.226 E6.34614
G1 X174.509 Y125.225 E6.37406
G1 X143.497 Y122.641 E7.50976
G1 X143.37 Y122.487 E7.51704
G1 X139.195 Y107.171 E8.09639
G1 X139.099 Y106.898 E8.10695
G1 X138.932 Y106.592 E8.11967
G1 X138.742 Y106.349 E8.13093
G1 X138.54 Y106.159 E8.14105
G1 X138.28 Y105.979 E8.15259
G1 X138.006 Y105.846 E8.16371
G1 X137.673 Y105.749 E8.17636
G1 X137.394 Y105.715 E8.18662
G1 X137.073 Y105.722 E8.19834
G1 X136.78 Y105.778 E8.20922
G1 X125.089 Y108.962 E8.65142
G1 X124.798 Y109.064 E8.66268
G1 X124.539 Y109.205 E8.67344
G1 X124.284 Y109.399 E8.68513
G1 X124.061 Y109.635 E8.69698
G1 X123.888 Y109.892 E8.70829
G1 X123.767 Y110.148 E8.71862
G1 X123.675 Y110.443 E8.7299
G1 X123.632 Y110.783 E8.74241
G1 X123.641 Y111.085 E8.75343
G1 X123.694 Y111.371 E8.76405
G1 X126.302 Y120.946 E9.12621
G1 X126.266 Y121.058 E9.13051
G1 X126.059 Y121.181 E9.1393
G1 X115.436 Y120.304 E9.5283
G1 X115.281 Y120.098 E9.53771
G1 X115.274 Y113.996 E9.7604
G0 F4800 X115.6 Y113.65
;TYPE:WALL-INNER
G1 F1800 X115.263 Y113.307 E9.7792
G1 X114.947 Y113.143 E9.79312
G1 X109.853 Y113.141 E9.9923
G1 X109.853 Y107.057 E10.2302
G1 X114.747 Y107.05 E10.42156
G1 X115.097 Y106.951 E10.43578
G1 X115.546 Y106.631 E10.45734
G1 X115.699 Y106.395 E10.46834
G1 X115.756 Y106.116 E10.47947
G1 X115.759 Y100.35 E10.70493
G1 X150.147 Y97.482 E12.05422
G1 X157.869 Y114.211 E12.77467
G1 X158.017 Y114.479 E12.78664
G1 X158.269 Y114.808 E12.80285
G1 X158.576 Y115.083 E12.81896
G1 X158.873 Y115.282 E12.83294
G1 X159.179 Y115.424 E12.84613
G1 F1690.7 X159.272 Y115.492 E12.85093
G1 F1485 X159.511 Y115.616 E12.86369
G1 F1400.9 X160.04 Y115.661 E12.89036
G1 F1387.9 X160.364 Y115.657 E12.9068
G1 F1544.2 X160.69 Y115.517 E12.92297
G1 F1789.2 X161.054 Y115.39 E12.93813
G1 F1800 X172.096 Y110.296 E13.41362
G1 X172.416 Y110.123 E13.42784
G1 X172.734 Y109.875 E13.44361
G1 X172.998 Y109.589 E13.45883
G1 X173.21 Y109.27 E13.47381
G1 X173.375 Y108.915 E13.48912
G1 X173.479 Y108.535 E13.50452
G1 X173.521 Y108.13 E13.52044
G1 X173.507 Y107.766 E13.53469
G1 X173.434 Y107.401 E13.54924
G1 X173.295 Y107.036 E13.56451
G1 X168.198 Y95.98 E14.04055
G1 X176.911 Y95.252 E14.38242
G1 X177.254 Y95.252 E14.39584
G1 X177.574 Y95.307 E14.40853
G1 X177.88 Y95.411 E14.42117
G1 X178.156 Y95.56 E14.43343
G1 X178.416 Y95.762 E14.44631
G1 X178.631 Y95.996 E14.45873
G1 X178.803 Y96.26 E14.47105
G1 X178.936 Y96.562 E14.48396
G1 X179.013 Y96.863 E14.4961
G1 X179.042 Y97.214 E14.50988
G1 X179.043 Y120.589 E15.42387
G1 X178.981 Y121.304 E15.45193
G1 X178.816 Y121.962 E15.47846
G1 X178.537 Y122.595 E15.50551
G1 X178.168 Y123.162 E15.53196
G1 X177.705 Y123.663 E15.55864
G1 X177.158 Y124.089 E15.58574
G1 X176.541 Y124.423 E15.61318
G1 F1507.6 X175.916 Y124.531 E15.64279
G1 F1329.9 X175.482 Y124.625 E15.66629
G1 F1350 X175.228 Y124.662 E15.67967
G1 F1316.1 X174.533 Y124.65 E15.71685
G1 F1296.9 X173.945 Y124.601 E15.74887
G1 F1396.6 X173.363 Y124.601 E15.7782
G1 F1643.9 X172.781 Y124.6 E15.80312
G1 F1515.3 X171.823 Y124.426 E15.84834
G1 F1322 X170.576 Y124.329 E15.91493
G1 X170.328 Y124.302 E15.92821
G1 F1323.9 X170.078 Y124.289 E15.94152
G1 F1343.9 X168.838 Y124.189 E16.00668
G1 F1544.2 X168.82 Y124.27 E16.01046
G1 F1800 X166.685 Y124.092 E16.09423
G1 F1552.3 X166.16 Y123.968 E16.11869
G1 F1390 X162.7 Y123.693 E16.29444
G1 X161.867 Y123.611 E16.33682
G1 F1482.5 X161.604 Y123.642 E16.34939
G1 F1706.9 X161.154 Y123.631 E16.36795
G1 F1800 X158.937 Y123.447 E16.45494
G1 F1605.4 X158.335 Y123.336 E16.48177
G1 F1465.5 X157.1 Y123.24 E16.54127
G1 F1625.9 X156.17 Y123.216 E16.58154
G1 F1628.9 X155.424 Y123.101 E16.61415
G1 F1502.5 X154.009 Y122.989 E16.68064
G1 F1650 X153.314 Y122.979 E16.71029
G1 F1800 X151.833 Y122.855 E16.7684
G1 F1656.1 X151.32 Y122.77 E16.7905
G1 F1552.3 X149.91 Y122.659 E16.85463
G1 F1392.2 X149.137 Y122.522 E16.89432
G1 F1356.2 X148.469 Y122.521 E16.92899
G1 F1523.1 X147.966 Y122.496 E16.95226
G1 F1596.8 X146.09 Y122.349 E17.03521
G1 F1710.2 X145.269 Y122.309 E17.06903
G1 F1800 X143.783 Y122.184 E17.12734
G1 X139.657 Y107.045 E17.74089
G1 X139.534 Y106.691 E17.75555
G1 X139.343 Y106.343 E17.77107
G1 X139.111 Y106.041 E17.78596
G1 X138.825 Y105.772 E17.80131
G1 X138.503 Y105.553 E17.81654
G1 X138.162 Y105.39 E17.83132
G1 X137.789 Y105.282 E17.8465
G1 X137.397 Y105.234 E17.86194
G1 X137.033 Y105.246 E17.87618
G1 X136.637 Y105.32 E17.89194
G1 F1803.6 X133.039 Y106.301 E18.03746
G1 F1693.9 X132.109 Y106.519 E18.07715
G1 F1502.5 X131.179 Y106.737 E18.1219
G1 F1350 X130.249 Y106.955 E18.1717
G1 F1500 X129.662 Y107.22 E18.20192
G1 F1800 X124.963 Y108.5 E18.39235
G1 X124.616 Y108.622 E18.40673
G1 X124.265 Y108.809 E18.42228
G1 X123.969 Y109.039 E18.43694
G1 X123.681 Y109.345 E18.45337
G1 X123.472 Y109.657 E18.46805
G1 X123.314 Y109.994 E18.48261
G1 X123.2 Y110.363 E18.49771
G1 X123.154 Y110.767 E18.51361
G1 X123.165 Y111.128 E18.52773
G1 X123.237 Y111.515 E18.54312
G1 X125.733 Y120.674 E18.91431
G1 X115.759 Y119.85 E19.30564
G1 X115.752 Y114.028 E19.53329
G1 X115.6 Y113.65 E19.54922
;;retract move;;
G1 F3840 X115.263 Y113.307 E19.16922
G1 X114.947 Y113.143 E18.78922
G1 X113.783 Y113.143 E18.40922
G1 F1800 E18.34922
G0 F4800 X115.057 Y110.208 Z0.6
G0 X117.956 Y103.529
;TYPE:WALL-OUTER
G1 F600 Z0.2
G1 F1800 E19.54922
G1 X118.055 Y103.451 E19.55382
G1 X119.244 Y103.303 E19.59755
G1 X119.387 Y103.45 E19.60503
G1 X120.084 Y104.992 E19.66679
G1 X120.384 Y103.327 E19.72853
G1 X120.485 Y103.154 E19.73584
G1 X121.657 Y103.006 E19.77895
G1 X121.833 Y103.165 E19.78761
G1 F1796.1 X121.789 Y103.524 E19.80084
G1 X122.067 Y103.158 E19.81764
G1 F1800 X122.47 Y102.917 E19.83478
G1 X123.027 Y102.783 E19.85569
G1 X123.323 Y102.762 E19.86652
G1 X123.781 Y102.784 E19.88325
G1 X124.12 Y102.945 E19.89695
G1 X124.431 Y103.261 E19.91313
G1 X124.574 Y103.675 E19.92911
G1 X124.484 Y104.176 E19.94769
G1 X124.383 Y104.296 E19.95341
G1 X124.654 Y104.519 E19.96622
G1 X124.794 Y104.342 E19.97446
G1 X125.755 Y104.225 E20.00979
G1 F1868.8 X126.133 Y104.195 E20.02312
G1 F2033.3 X126.361 Y104.442 E20.03398
G1 F2460.4 X126.357 Y104.844 E20.04471
G1 F2550.9 X126.475 Y104.63 E20.051
G1 F2265.9 X127.142 Y104.517 E20.07062
G1 F2460.4 X127.433 Y104.498 E20.0784
G1 X127.146 Y104.476 E20.08609
G1 F2223.5 X126.701 Y104.295 E20.10028
G1 F2329.4 X126.556 Y104.101 E20.10711
G1 F2188.4 X126.367 Y103.923 E20.1149
G1 F1911.7 X126.181 Y103.439 E20.13272
G1 F1835.8 X126.35 Y102.946 E20.15137
G1 F1800 X126.532 Y102.688 E20.16289
G1 X126.824 Y102.461 E20.17639
G1 X127.209 Y102.303 E20.19158
G1 X127.695 Y102.21 E20.20964
G1 X127.989 Y102.189 E20.22039
G1 X128.435 Y102.208 E20.23668
G1 F1736.1 X128.803 Y102.352 E20.25164
G1 F1621.1 X129.148 Y102.664 E20.27049
G1 F1474.5 X129.427 Y103.118 E20.29423
G1 F1643.5 X129.258 Y103.428 E20.30834
G1 F1966 X128.814 Y103.508 E20.32341
G1 F1894.3 X129.11 Y103.655 E20.33488
G1 F1823.7 X129.582 Y104.011 E20.35617
G1 F1852.1 X129.572 Y103.471 E20.37533
G1 F1611.6 X129.427 Y103.118 E20.39088
G1 F1569.1 X129.439 Y102.661 E20.41002
G1 F1800 X129.386 Y102.234 E20.42572
G1 X129.501 Y102.046 E20.43377
G1 X132.34 Y101.695 E20.53816
G1 X132.506 Y101.862 E20.54676
G1 X132.611 Y102.714 E20.57809
G1 F1704.1 X132.276 Y102.89 E20.59267
G1 F1643.5 X132.392 Y102.91 E20.59738
G1 F1732.5 X132.529 Y103.075 E20.60551
G1 F1800 X132.619 Y103.82 E20.6329
G1 F1509.3 X132.481 Y104.108 E20.6468
G1 F1356.6 X132.598 Y104.121 E20.6525
G1 F1587 X132.859 Y104.333 E20.66641
G1 F1800 X132.967 Y105.221 E20.69906
G1 X132.811 Y105.362 E20.70673
G1 X129.959 Y105.714 E20.81161
G1 X129.8 Y105.58 E20.8192
G1 F1796.1 X129.746 Y105.171 E20.83428
G1 F1739.7 X129.673 Y104.813 E20.84808
G1 F1743.4 X129.504 Y105.211 E20.86437
G1 F1800 X129.313 Y105.487 E20.87662
G1 X129.003 Y105.733 E20.89106
G1 X128.612 Y105.898 E20.90655
G1 X128.145 Y105.991 E20.92393
G1 X127.765 Y106.018 E20.93783
G1 X127.407 Y105.998 E20.95092
G1 X126.906 Y105.872 E20.96977
G1 X126.49 Y105.41 E20.99246
G1 X126.398 Y105.212 E21.00043
G1 X126.344 Y105.319 E21.0048
G1 X124.976 Y105.487 E21.0551
G1 F2253.7 X124.81 Y105.273 E21.063
G1 X124.858 Y105.661 E21.07439
G1 F1800 X124.621 Y106.05 E21.09102
G1 X124.345 Y106.295 E21.10448
G1 X123.966 Y106.469 E21.1197
G1 X123.559 Y106.554 E21.13488
G1 X123.131 Y106.581 E21.15053
G1 X122.734 Y106.527 E21.16515
G1 X122.452 Y106.415 E21.17622
G1 X122.193 Y106.229 E21.18786
G1 X122.003 Y105.999 E21.19875
G1 F1784.5 X121.766 Y105.577 E21.21656
G1 X121.983 Y105.367 E21.22768
