;FLAVOR:Marlin
;TIME:2544
;Filament used:2.625m
;Material Diameter:1.75
;Material Density:1.24
;Filament Cost:0.156584
;Filament Weight:7.829179
;Filament Length:2.624995
;Layer height:0.2
;MINX:2.37
;MINY:2.149
;MINZ:0.2
;MAXX:181.561
;MAXY:125.893
;MAXZ:20.401
;OuterWall Time:521.834
;InnerWall Time:332.673
;Skin Time:1012.45
;Support Time:7.80259
;SkirtBrim Time:0
;Infill Time:65.8148
;Support Infills Time:0
;Combing Time:205.076
;Retraction Time:398.351
;PrimeTower Time:0

;;;;;;;;;;;;;;;;;;;;;;;;;;;;;;;;;;;;;;;;;;;;;;;;;;;;;;;;;;;;;;;;;;;;;;;;;;;;
;Creality Print GCode Generated by CXEngine
;CRSLICE_GIT_HASH:58ee74d
;Creality Print Version : V4.3.8.6984
;CXEngine Release Time:2023-12-04 18:16:29
;Gcode Generated Time:2024-08-08 08:21:35
;----------Machine Config--------------
;Machine Name:Ender-3 V3 SE
;Machine Height:250
;Machine Width:220
;Machine Depth:220
;Material Type:PLA
;Material Name:CR-PLA_1.75
;Number of Extruders:1
;ExtruderParams[0] Nozzle Diameter:1000
;----------Profile Config---------------
;Wall Thickness:0.8
;Top/Bottom Thickness:0.8
;Out Wall Line Width:0.42
;Inner Wall Line Width:0.45
;Inital Height:200
;Wall Line Count:2
;Infill Line Distance:8
;Infill Pattern:grid
;Infill Sparse Density:10
;Infill Wipe Distance:0
;Print Temperature:210
;Bed Temperature:60
;Support Enable:true
;Support Density:15
;Support Angle:60
;Adhesion Type:none
;machine is belt:false
;machine belt offset:10
;machine belt offset Y:0
;Raft Base Line Spacing:1.6
;Wait Heatup Sync:true
;Enable Ironing:false
;Material Type:PLA
;Max volumetric speed:20
;Preview Img Type:png
;Screen Size:Sermoon D3
;----------Shell Config----------------
;Outer Wall Wipe Distance:2000
;Outer Inset First:false
;Infill Before Walls:false
;Infill Overlap:0.09
;Fill Gaps Between Walls:everywhere
;Minimum Infill Area:30
;Top Surface Skin Layer:0
;Top Layers:4
;Z Seam Alignment:sharpest_corner
;Seam Corner Preference:z_seam_corner_inner
;Z Seam X:110
;Z Seam Y:220
;Horizontal Expansion:0
;Top/Bottom Pattern:zigzag
;Ironing Pattern:zigzag
;Vase Model:false
;----------Support Config----------------
;Support Type:everywhere
;Support Pattern:zigzag
;Support Infill Layer Thickness:0.2
;Minimum Support Area:1
;Enable Support Roof:true
;Support Roof Thickness:0.8
;Support Roof Pattern:lines
;Connect Support Lines:0
;Connect Support ZigZags:1
;Minimum Support X/Y Distance:0.2
;Support Line Distance:2.67
; ---------PrintSpeed & Travel----------
;Enable Print Cool:true
;Avoid Printed Parts Traveling:true
;Enable Retraction:true
;Retraction Distance:1.2
;Retraction Speed:30
;Retraction Prime Speed:30
;Maximum Retraction Count:100
;Minimum Extrusion Distance Window:0.8
;Z Hop When Retracted:true
;Z Hop Height:0.4
;Retract Before Outer Wall:true

;Outer Wall Speed:60
;Inner Wall Speed:90
;Infill Speed:180
;Top/Bottom Speed:50
;Travel Speed:150
;Initial Layer Speed:30
;Skirt/Brim Speed:25
;Prime Tower Speed:60
;Outer Wall Acceleration:1000
;Inner Wall Acceleration:2000
;Infill Acceleration:2500
;Top/Bottom Acceleration:2500
;Travel Acceleration:2500
;Initial Layer Print Acceleration:500
;Initial Layer Travel Acceleration:500
;Skirt/Brim Acceleration:500
;Combing Mode:off
; --------SpecialModel&Mesh Fixes--------
;Union Overlapping Volum:true
;Remove All Holes:false
;Maximum Travel Resolution:0.25
;Maximum Deviation:0.05
;Maximum Model Angle:0.872665
;IS Mold Print:false
;Make Overhang Printable:false
;Enable Coasting:false
;Coasting Volumes:0.064
;Coasting Speed:0.9
;Raft AirGap:0.25
;Layer0 ZOverLap:0.13
;Adaptive Layers:0
;---------------------End of Head--------------------------
M140 S60
M105
M190 S60
M104 S210
M82 ;absolute extrusion mode
M220 S100 ;Reset Feedrate
M221 S100 ;Reset Flowrate

G28 ;Home

G92 E0 ;Reset Extruder
G1 Z2.0 F3000 ;Move Z Axis up
G1 X-2.1 Y20 Z0.28 F5000.0 ;Move to start position
M109 S210.000000
G1 X-2.1 Y145.0 Z0.28 F1500.0 E15 ;Draw the first line
G1 X-2.4 Y145.0 Z0.28 F5000.0 ;Move to side a little
G1 X-2.4 Y20 Z0.28 F1500.0 E30 ;Draw the second line
G92 E0  ;Reset Extruder
G1 E-1.0000 F1800 ;Retract a bit
G1 Z2.0 F3000 ;Move Z Axis up
G1 E0.0000 F1800 

G92 E0
G92 E0
G1 F1800 E-1.2
;LAYER_COUNT:41

;LAYER:0
M106 S0
M204 S500
;;retract;;
G1 F1800 E0
G1 F1800 E-1.2
G0 F4800 X2.37 Y2.149 Z20.401
G0 X109.757 Y99.559 Z0.6
;TYPE:SUPPORT
G1 F600 Z0.2
G1 F1800 E0
G1 F1421.5 X109.566 Y99.921 E0.01593
G1 F1307.5 X109.566 Y102.076 E0.1071
G1 F1404.7 X109.566 Y104.231 E0.19196
G1 F1578 X109.889 Y104.705 E0.21207
;;retract move;;
G1 F3840 X109.755 Y102.71 E-0.92793
G1 F1800 E-0.98793
G0 F4800 X111.957 Y105.032 Z0.6
G0 X113.008 Y106.141
G1 F600 Z0.2
G1 F1800 E0.21207
G1 F1356.6 X113.176 Y106.523 E0.22909
G1 F1263.8 X113.176 Y113.279 E0.5248
G1 F1354.4 X113.09 Y113.518 E0.53517
G1 F1453.8 X112.951 Y113.756 E0.54566
;;retract move;;
G1 F3840 X113.013 Y111.757 E-0.59434
G1 F1800 E-0.65434
G0 F4800 X110.826 Y114.093 Z0.6
G0 X109.887 Y115.096
G1 F600 Z0.2
G1 F1800 E0.54566
G1 F1569.1 X109.566 Y115.566 E0.56573
G1 F1400 X109.566 Y117.724 E0.651
G1 F1307.5 X109.566 Y119.882 E0.74229
G1 F1419.1 X109.756 Y120.24 E0.75809
;;retract move;;
G1 F3840 X109.675 Y118.242 E-0.38191
G1 F1800 E-0.44191
G0 F4800 X107.711 Y115.717 Z0.6
;MESH:0_0
G0 X106.157 Y113.719
;TYPE:WALL-OUTER
G1 F600 Z0.2
G1 F1800 E0.75809
G1 X106.093 Y113.866 E0.76394
G1 X106.091 Y119.851 E0.98237
G1 X105.971 Y120.099 E0.99242
G1 X71.118 Y123.006 E2.26879
G1 X70.901 Y122.953 E2.27694
G1 X63.083 Y106.018 E2.95765
G1 X62.948 Y105.773 E2.96786
G1 X62.759 Y105.531 E2.97907
G1 X62.535 Y105.321 E2.99027
G1 X62.28 Y105.146 E3.00156
G1 X61.993 Y105.011 E3.01314
G1 X61.702 Y104.925 E3.02421
G1 X61.388 Y104.887 E3.03575
G1 X61.062 Y104.898 E3.04766
G1 X60.774 Y104.954 E3.05836
G1 X60.482 Y105.059 E3.06969
G1 X49.476 Y110.138 E3.51206
G1 X49.2 Y110.291 E3.52357
G1 X48.974 Y110.467 E3.53403
G1 X48.741 Y110.72 E3.54658
G1 X48.589 Y110.948 E3.55658
G1 X48.441 Y111.268 E3.56945
G1 X48.368 Y111.524 E3.57916
G1 X48.328 Y111.869 E3.59184
G1 X48.342 Y112.181 E3.60323
G1 X48.405 Y112.487 E3.61463
G1 X48.502 Y112.745 E3.62469
G1 X53.792 Y124.218 E4.08576
G1 X53.621 Y124.462 E4.09664
G1 X44.48 Y125.226 E4.4314
G1 X44.077 Y125.226 E4.4461
G1 X43.678 Y125.158 E4.46088
G1 X43.298 Y125.028 E4.47553
G1 X42.953 Y124.841 E4.48985
G1 X42.63 Y124.591 E4.50476
G1 X42.361 Y124.298 E4.51928
G1 X42.146 Y123.968 E4.53365
G1 X41.982 Y123.595 E4.54852
G1 X41.887 Y123.216 E4.56278
G1 X41.851 Y122.805 E4.57784
G1 X41.85 Y99.39 E5.43236
G1 X41.917 Y98.614 E5.46078
G1 X42.101 Y97.883 E5.48829
G1 X42.412 Y97.177 E5.51645
G1 X42.824 Y96.543 E5.54404
G1 X43.341 Y95.983 E5.57186
G1 X43.951 Y95.51 E5.60003
G1 X44.616 Y95.15 E5.62762
G1 F1803.9 X45.339 Y94.9 E5.65548
G1 X46.096 Y94.774 E5.68343
G1 F1800 X46.862 Y94.776 E5.71138
G1 X77.874 Y97.358 E6.84707
G1 X78.002 Y97.512 E6.85438
G1 X82.176 Y112.826 E7.43365
G1 X82.288 Y113.137 E7.44571
G1 X82.44 Y113.41 E7.45711
G1 X82.629 Y113.651 E7.46829
G1 X82.831 Y113.841 E7.47841
G1 X83.09 Y114.02 E7.4899
G1 X83.365 Y114.154 E7.50107
G1 X83.698 Y114.251 E7.51372
G1 X83.977 Y114.285 E7.52398
G1 X84.298 Y114.278 E7.5357
G1 X84.606 Y114.219 E7.54714
G1 X96.282 Y111.038 E7.98879
G1 X96.59 Y110.927 E8.00073
G1 X96.862 Y110.775 E8.01211
G1 X97.077 Y110.609 E8.02202
G1 X97.317 Y110.355 E8.03477
G1 X97.485 Y110.104 E8.04579
G1 X97.604 Y109.852 E8.05596
G1 X97.701 Y109.534 E8.0681
G1 X97.739 Y109.226 E8.07942
G1 X97.73 Y108.91 E8.09096
G1 X97.675 Y108.623 E8.10162
G1 X95.068 Y99.052 E8.46364
G1 X95.104 Y98.942 E8.46787
G1 X95.313 Y98.819 E8.47672
G1 X105.934 Y99.696 E8.86564
G1 X106.091 Y99.901 E8.87507
G1 X106.094 Y106.001 E9.09769
G1 X106.471 Y106.379 E9.11717
G1 X111.342 Y106.381 E9.29493
G1 X111.896 Y106.496 E9.31558
G1 X111.996 Y106.665 E9.32275
G1 X111.996 Y113.136 E9.55891
G1 X111.895 Y113.306 E9.56612
G1 X111.341 Y113.421 E9.58677
G1 X106.561 Y113.432 E9.76122
G1 X106.157 Y113.719 E9.7793
G0 F4800 X105.815 Y113.378
;TYPE:WALL-INNER
G1 F1800 X105.617 Y113.684 E9.79355
G1 X105.613 Y119.65 E10.02683
G1 X71.226 Y122.517 E11.37608
G1 X63.502 Y105.787 E12.0966
G1 X63.354 Y105.52 E12.10854
G1 X63.103 Y105.195 E12.12459
G1 X62.859 Y104.969 E12.1376
G1 X62.502 Y104.718 E12.15466
G1 X62.193 Y104.576 E12.16796
G1 F1716.8 X62.097 Y104.515 E12.17262
G1 F1497.5 X61.853 Y104.392 E12.18547
G1 F1396.6 X61.449 Y104.344 E12.20597
G1 F1387.9 X61.006 Y104.342 E12.22844
G1 F1544.2 X60.68 Y104.482 E12.24461
G1 F1789.2 X60.573 Y104.515 E12.24901
G1 F1800 X60.265 Y104.631 E12.26188
G1 X49.275 Y109.704 E12.73518
G1 X48.914 Y109.908 E12.75139
G1 X48.638 Y110.124 E12.7651
G1 X48.373 Y110.41 E12.78034
G1 X48.163 Y110.725 E12.79515
G1 X47.998 Y111.083 E12.81056
G1 X47.891 Y111.455 E12.82569
G1 X47.85 Y111.869 E12.84196
G1 X47.871 Y112.264 E12.85743
G1 X47.938 Y112.604 E12.87098
G1 X48.074 Y112.961 E12.88592
G1 X53.174 Y124.02 E13.36211
G1 X44.46 Y124.748 E13.70402
G1 X44.117 Y124.748 E13.71744
G1 X43.796 Y124.692 E13.73018
G1 X43.491 Y124.588 E13.74278
G1 X43.215 Y124.439 E13.75504
G1 X42.955 Y124.237 E13.76792
G1 X42.739 Y124.004 E13.78034
G1 X42.568 Y123.74 E13.79264
G1 X42.436 Y123.44 E13.80545
G1 X42.36 Y123.137 E13.81767
G1 X42.329 Y122.785 E13.83148
G1 X42.328 Y99.411 E14.74544
G1 X42.389 Y98.693 E14.77362
G1 X42.554 Y98.039 E14.79999
G1 X42.834 Y97.405 E14.82709
G1 X43.203 Y96.837 E14.85358
G1 X43.665 Y96.336 E14.88022
G1 X44.213 Y95.911 E14.90734
G1 X44.808 Y95.588 E14.93381
G1 F1656.1 X45.5 Y95.401 E14.96428
G1 F1432.5 X45.65 Y95.409 E14.97166
G1 F1341.9 X46.142 Y95.337 E14.99774
G1 F1318 X46.837 Y95.35 E15.03486
G1 F1296.9 X47.425 Y95.397 E15.06687
G1 F1507.6 X47.443 Y95.303 E15.07134
G1 F1800 X48.588 Y95.399 E15.11626
G1 F1515.3 X49.547 Y95.574 E15.16154
G1 F1320 X50.794 Y95.671 E15.22824
G1 F1322 X51.042 Y95.697 E15.24151
G1 X51.292 Y95.709 E15.25484
G1 F1343.9 X52.543 Y95.812 E15.32058
G1 F1544.2 X53.256 Y95.788 E15.35309
G1 F1800 X54.685 Y95.907 E15.40916
G1 F1549.6 X55.21 Y96.03 E15.43365
G1 F1385.7 X58.745 Y96.313 E15.61378
G1 X59.503 Y96.389 E15.65247
G1 F1480.1 X59.763 Y96.357 E15.66493
G1 F1703.6 X60.21 Y96.367 E15.6834
G1 F1800 X62.432 Y96.551 E15.77058
G1 F1605.4 X63.034 Y96.664 E15.79744
G1 F1463.1 X64.27 Y96.759 E15.85707
G1 F1623 X65.201 Y96.783 E15.89746
G1 F1625.9 X65.947 Y96.898 E15.93013
G1 F1500 X67.361 Y97.009 E15.99668
G1 F1647 X68.055 Y97.02 E16.02635
G1 F1800 X69.537 Y97.143 E16.08449
G1 F1656.1 X70.05 Y97.23 E16.10661
G1 F1549.6 X71.461 Y97.341 E16.17089
G1 F1392.2 X72.233 Y97.477 E16.21052
G1 F1356.2 X72.901 Y97.478 E16.24519
G1 F1525.7 X73.495 Y97.509 E16.27263
G1 F1596.8 X75.28 Y97.65 E16.35156
G1 F1706.9 X76.101 Y97.69 E16.38545
G1 F1800 X77.588 Y97.813 E16.44379
G1 X81.714 Y112.952 E17.05734
G1 X81.841 Y113.317 E17.07245
G1 X82.026 Y113.655 E17.08752
G1 X82.261 Y113.96 E17.10257
G1 X82.546 Y114.229 E17.1179
G1 X82.864 Y114.444 E17.13291
G1 X83.211 Y114.61 E17.14795
G1 X83.581 Y114.718 E17.16302
G1 X83.974 Y114.766 E17.1785
G1 X84.337 Y114.754 E17.1927
G1 X84.682 Y114.692 E17.20641
G1 X96.408 Y111.5 E17.68159
G1 X96.768 Y111.375 E17.6965
G1 X97.114 Y111.185 E17.71193
G1 X97.416 Y110.952 E17.72684
G1 X97.678 Y110.67 E17.7419
G1 X97.898 Y110.345 E17.75724
G1 X98.057 Y110.006 E17.77188
G1 X98.171 Y109.634 E17.7871
G1 X98.216 Y109.259 E17.80186
G1 X98.205 Y108.858 E17.81755
G1 X98.145 Y108.532 E17.83051
G1 X95.641 Y99.327 E18.20352
G1 X105.614 Y100.146 E18.59479
G1 X105.618 Y105.972 E18.8226
G1 X105.713 Y106.298 E18.83587
G1 X106.118 Y106.697 E18.8581
G1 X106.512 Y106.855 E18.8747
G1 X111.518 Y106.859 E19.07044
G1 X111.518 Y112.943 E19.30834
G1 X106.569 Y112.953 E19.50185
G1 X106.269 Y113.05 E19.51418
G1 X105.815 Y113.378 E19.53608
;;retract move;;
G1 F3840 X105.617 Y113.684 E18.96608
G1 X105.616 Y115.32 E18.39608
G1 F1800 E18.33608
G0 F4800 X102.58 Y114.309 Z0.6
G0 X71.291 Y103.886
;TYPE:WALL-OUTER
G1 F600 Z0.2
G1 F1800 E19.53608
G1 X71.166 Y103.715 E19.54381
G1 X71.378 Y100.837 E19.64913
G1 F1773.1 X71.476 Y100.004 E19.6802
G1 F1807.8 X71.683 Y99.494 E19.7002
G1 F1819.7 X71.887 Y99.167 E19.71411
G1 F1788.4 X72.192 Y98.892 E19.7292
G1 F1800 X72.543 Y98.713 E19.74358
G1 X72.951 Y98.606 E19.75897
G1 X73.435 Y98.588 E19.77665
G1 X74.063 Y98.617 E19.79959
G1 X75.202 Y98.701 E19.84127
G1 X75.356 Y98.778 E19.84755
G1 X75.417 Y98.911 E19.85289
G1 X75.349 Y99.837 E19.88678
G1 X75.16 Y100.055 E19.89731
G1 X74.103 Y99.977 E19.93599
G1 X73.426 Y99.96 E19.9607
G1 X73.179 Y100.037 E19.97014
G1 X73 Y100.289 E19.98142
G1 X72.893 Y100.962 E20.00629
G1 X72.684 Y103.796 E20.11
G1 X72.55 Y103.979 E20.11828
G1 X71.291 Y103.886 E20.16435
;;retract move;;
G1 F3840 X71.166 Y103.715 E19.59435
G1 X71.297 Y101.931 E19.02435
G1 F1800 E18.96435
G0 F4800 X68.684 Y100.084 Z0.6
G0 X65.86 Y98.087
G1 F600 Z0.2
G1 F1800 E20.16435
G1 X65.997 Y98.025 E20.16984
G1 X67.279 Y98.118 E20.21675
G1 X67.45 Y98.19 E20.22352
G1 X67.831 Y99.315 E20.26687
G1 X69.414 Y99.432 E20.32479
G1 X69.915 Y98.453 E20.36493
G1 X70.099 Y98.328 E20.37305
G1 X71.382 Y98.42 E20.41999
G1 X71.586 Y98.592 E20.42973
G1 F1815.7 X71.562 Y98.787 E20.43684
G1 F1852.1 X71.298 Y99.273 E20.45645
G1 F1807.8 X71.036 Y99.828 E20.47875
G1 F1773.1 X70.634 Y100.613 E20.51143
G1 F1800 X69.11 Y103.646 E20.6353
G1 X68.971 Y103.719 E20.64103
G1 X67.641 Y103.618 E20.68971
G1 X67.513 Y103.526 E20.69546
G1 X65.788 Y98.28 E20.897
G1 X65.86 Y98.087 E20.90452
;;retract move;;
G1 F3840 X65.997 Y98.025 E20.61952
G1 X67.279 Y98.118 E20.33452
G1 X67.45 Y98.19 E20.04952
G1 X67.571 Y98.55 E19.76452
G1 F1800 E19.70452
G0 F4800 X64.88 Y100.28 Z0.6
G0 X60.611 Y103.025
G1 F600 Z0.2
G1 F1800 E20.90452
G1 F1656.6 X60.572 Y102.732 E20.91624
G1 F1557.3 X60.806 Y102.454 E20.93157
G1 F1545.7 X61.076 Y102.093 E20.95072
G1 F1640.2 X61.421 Y101.733 E20.97069
G1 F1800 X62.725 Y100.1 E21.04696
G1 X62.88 Y97.972 E21.12483
G1 X63.086 Y97.813 E21.13432
G1 X64.188 Y97.891 E21.17464
G1 X64.349 Y97.977 E21.1813
G1 X64.399 Y98.139 E21.18749
G1 X64.245 Y100.25 E21.26473
G1 X65.88 Y103.189 E21.38747
G1 X65.855 Y103.345 E21.39324
G1 X65.687 Y103.476 E21.40101
G1 X64.366 Y103.379 E21.44935
G1 X64.225 Y103.292 E21.4554
G1 X63.369 Y101.565 E21.52574
G1 X62.25 Y103.115 E21.59551
G1 F1803.9 X62.076 Y103.213 E21.60278
G1 X60.756 Y103.114 E21.65098
G1 F1800 X60.611 Y103.025 E21.65719
;;retract move;;
G1 F3840 X60.572 Y102.732 E21.42919
G1 X60.806 Y102.454 E21.20119
G1 X61.076 Y102.093 E20.97319
G1 X61.421 Y101.733 E20.74519
G1 X61.666 Y101.426 E20.51719
G1 F1800 E20.45719
G0 F4800 X64.724 Y102.367 Z0.6
G0 X71.172 Y104.353
;TYPE:WALL-INNER
G1 F600 Z0.2
G1 F1800 E21.65719
G1 X70.872 Y104.136 E21.67167
G1 X70.728 Y103.888 E21.68288
G1 X70.694 Y103.611 E21.6938
G1 X70.871 Y101.205 E21.78813
G1 X69.565 Y103.803 E21.90183
G1 X69.341 Y104.088 E21.916
G1 X68.998 Y104.201 E21.93012
G1 X67.493 Y104.086 E21.98914
G1 X67.184 Y103.864 E22.00402
G1 X67.039 Y103.613 E22.01535
G1 F1785.6 X66.73 Y102.692 E22.05365
G1 F1803.6 X65.351 Y98.477 E22.2267
G1 F1875.8 X65.325 Y98.205 E22.23696
G1 F1856.2 X65.398 Y97.912 E22.24841
G1 F1800 X65.533 Y97.738 E22.25702
G1 F1637.9 X65.959 Y97.49 E22.2782
G1 F1510.2 X67.316 Y97.595 E22.34163
G1 F1647 X67.723 Y97.812 E22.36134
G1 F1800 X67.931 Y98.121 E22.37591
G1 X68.182 Y98.861 E22.40646
G1 X69.133 Y98.931 E22.44375
G1 X69.489 Y98.235 E22.47432
G1 X69.739 Y97.961 E22.48882
G1 F1656.1 X70.052 Y97.808 E22.50363
G1 F1549.6 X71.424 Y97.907 E22.56611
G1 F1392.2 X71.949 Y98.08 E22.59405
G1 F1249.6 X72.077 Y98.291 E22.60795
G1 X72.332 Y98.165 E22.62397
G1 F1300.7 X72.839 Y98.077 E22.65181
G1 F1453.5 X73.394 Y98.072 E22.67869
