;FLAVOR:Marlin
;TIME:1357
;Filament used:1.40825m
;Material Diameter:1.75
;Material Density:1.24
;Filament Cost:0.084004
;Filament Weight:4.200177
;Filament Length:1.408250
;Layer height:0.2
;MINX:2.027
;MINY:2.475
;MINZ:0.2
;MAXX:135.482
;MAXY:115.571
;MAXZ:20.401
;OuterWall Time:517.449
;InnerWall Time:183.295
;Skin Time:210.206
;Support Time:0
;SkirtBrim Time:15.9339
;Infill Time:69.849
;Support Infills Time:0
;Combing Time:79.4874
;Retraction Time:280.783
;PrimeTower Time:0
;;;;;;;;;;;;;;;;;;;;;;;;;;;;;;;;;;;;;;;;;;;;;;;;;;;;;;;;;;;;;;;;;;;;;;;;;;;
;Creality Print GCode Generated by CXEngine
;CRSLICE_GIT_HASH:58ee74d
;Creality Print Version : V4.3.8.6984
;CXEngine Release Time:2023-12-04 18:16:29
;Gcode Generated Time:2024-08-03 16:14:54
;----------Machine Config--------------
;Machine Name:Ender-3 V3 SE
;Machine Height:250
;Machine Width:220
;Machine Depth:220
;Material Type:PLA
;Material Name:CR-PLA_1.75
;Number of Extruders:1
;ExtruderParams[0] Nozzle Diameter:1000
;----------Profile Config---------------
;Wall Thickness:0.8
;Top/Bottom Thickness:0.8
;Out Wall Line Width:0.42
;Inner Wall Line Width:0.45
;Inital Height:200
;Wall Line Count:2
;Infill Line Distance:4.5
;Infill Pattern:zigzag
;Infill Sparse Density:10
;Infill Wipe Distance:0
;Print Temperature:210
;Bed Temperature:60
;Support Enable:true
;Support Density:15
;Support Angle:60
;Adhesion Type:brim
;machine is belt:false
;machine belt offset:10
;machine belt offset Y:0
;Raft Base Line Spacing:1.6
;Wait Heatup Sync:true
;Enable Ironing:false
;Material Type:PLA
;Max volumetric speed:20
;Preview Img Type:png
;Screen Size:Sermoon D3
;----------Shell Config----------------
;Outer Wall Wipe Distance:2000
;Outer Inset First:false
;Infill Before Walls:false
;Infill Overlap:0.14
;Fill Gaps Between Walls:everywhere
;Minimum Infill Area:15
;Top Surface Skin Layer:0
;Top Layers:4
;Z Seam Alignment:sharpest_corner
;Seam Corner Preference:z_seam_corner_inner
;Z Seam X:110
;Z Seam Y:220
;Horizontal Expansion:0
;Top/Bottom Pattern:zigzag
;Ironing Pattern:zigzag
;Vase Model:false
;----------Support Config----------------
;Support Type:buildplate
;Support Pattern:grid
;Support Infill Layer Thickness:0.15
;Minimum Support Area:1
;Enable Support Roof:true
;Support Roof Thickness:0.8
;Support Roof Pattern:lines
;Connect Support Lines:0
;Connect Support ZigZags:1
;Minimum Support X/Y Distance:0.2
;Support Line Distance:5.6
; ---------PrintSpeed & Travel----------
;Enable Print Cool:true
;Avoid Printed Parts Traveling:true
;Enable Retraction:true
;Retraction Distance:1.2
;Retraction Speed:30
;Retraction Prime Speed:30
;Maximum Retraction Count:100
;Minimum Extrusion Distance Window:0.8
;Z Hop When Retracted:true
;Z Hop Height:0.4
;Retract Before Outer Wall:true

;Outer Wall Speed:60
;Inner Wall Speed:90
;Infill Speed:180
;Top/Bottom Speed:50
;Travel Speed:150
;Initial Layer Speed:30
;Skirt/Brim Speed:25
;Prime Tower Speed:60
;Outer Wall Acceleration:1000
;Inner Wall Acceleration:2000
;Infill Acceleration:2500
;Top/Bottom Acceleration:2500
;Travel Acceleration:2500
;Initial Layer Print Acceleration:500
;Initial Layer Travel Acceleration:500
;Skirt/Brim Acceleration:500
;Combing Mode:off
; --------SpecialModel&Mesh Fixes--------
;Union Overlapping Volum:true
;Remove All Holes:false
;Maximum Travel Resolution:0.25
;Maximum Deviation:0.05
;Maximum Model Angle:0.872665
;IS Mold Print:false
;Make Overhang Printable:false
;Enable Coasting:false
;Coasting Volumes:0.064
;Coasting Speed:0.9
;Raft AirGap:0.25
;Layer0 ZOverLap:0.13
;Adaptive Layers:0
;---------------------End of Head--------------------------
M140 S60
M105
M190 S60
M104 S210
M82 ;absolute extrusion mode
M220 S100 ;Reset Feedrate
M221 S100 ;Reset Flowrate

G28 ;Home

G92 E0 ;Reset Extruder
G1 Z2.0 F3000 ;Move Z Axis up
G1 X-2.1 Y20 Z0.28 F5000.0 ;Move to start position
M109 S210.000000
G1 X-2.1 Y145.0 Z0.28 F1500.0 E15 ;Draw the first line
G1 X-2.4 Y145.0 Z0.28 F5000.0 ;Move to side a little
G1 X-2.4 Y20 Z0.28 F1500.0 E30 ;Draw the second line
G92 E0  ;Reset Extruder
G1 E-1.0000 F1800 ;Retract a bit
G1 Z2.0 F3000 ;Move Z Axis up
G1 E0.0000 F1800 

G92 E0
G92 E0
G1 F1800 E-1.2
;LAYER_COUNT:95

;LAYER:0
M106 S0
M204 S500
;;retract;;
G1 F1800 E0
G1 F1800 E-1.2
G0 F4800 X2.027 Y2.475 Z20.401
G0 X88.788 Y108.377 Z0.6
;TYPE:SKIRT
G1 F600 Z0.2
G1 F1800 E0
G1 F1500 X88.493 Y108.681 E0.01627
G1 X88.312 Y108.991 E0.03006
G1 X88.204 Y109.334 E0.04388
G1 X88.121 Y109.756 E0.0604
G1 X88.093 Y110.139 E0.07515
G1 X88.148 Y110.494 E0.08895
G1 X88.222 Y110.765 E0.09974
G1 X88.313 Y111.015 E0.10996
G1 X88.499 Y111.323 E0.12379
G1 X88.747 Y111.582 E0.13756
G1 X89.064 Y111.846 E0.15341
G1 X89.571 Y112.187 E0.17688
G1 X90.282 Y112.553 E0.2076
G1 X90.664 Y112.724 E0.22368
G1 X91.466 Y113.039 E0.25678
G1 X92.151 Y113.272 E0.28457
G1 X92.672 Y113.432 E0.30551
G1 X93.69 Y113.711 E0.34606
G1 X95.124 Y114.048 E0.40265
G1 X96.138 Y114.251 E0.44238
G1 X97.185 Y114.439 E0.48324
G1 X99.861 Y114.834 E0.58715
G1 X100.702 Y114.936 E0.6197
G1 X104.443 Y115.285 E0.76403
G1 X107.688 Y115.475 E0.88891
G1 X111.235 Y115.571 E1.02521
G1 X114.682 Y115.561 E1.15763
G1 X118.88 Y115.408 E1.31901
G1 X121.68 Y115.215 E1.42683
G1 X125.234 Y114.844 E1.5641
G1 X127.625 Y114.5 E1.65689
G1 X128.701 Y114.316 E1.69883
G1 X130.298 Y113.994 E1.76141
G1 X131.352 Y113.747 E1.803
G1 X132.121 Y113.543 E1.83356
G1 X132.847 Y113.331 E1.86262
G1 X133.564 Y113.095 E1.89162
G1 X134.213 Y112.855 E1.9182
G1 X134.542 Y112.688 E1.93237
G1 X134.9 Y112.39 E1.95026
G1 X135.24 Y111.894 E1.97337
G1 X135.355 Y111.553 E1.98719
G1 X135.445 Y111.139 E2.00347
G1 X135.482 Y110.796 E2.01672
G1 X135.482 Y109.147 E2.08007
G1 X135.424 Y108.716 E2.09677
G1 X135.299 Y108.264 E2.11479
G1 X135.122 Y107.856 E2.13187
G1 X134.903 Y107.572 E2.14565
G1 X134.627 Y107.343 E2.15943
G1 X134.306 Y107.18 E2.17326
G1 X133.6 Y106.916 E2.20221
G1 X132.597 Y106.593 E2.24269
G1 X131.537 Y106.3 E2.28494
G1 X130.067 Y105.953 E2.34296
G1 X127.948 Y105.553 E2.4258
G1 X126.257 Y105.293 E2.49153
G1 X123.797 Y104.987 E2.58676
G1 X120.07 Y104.667 E2.73046
G1 X118.759 Y104.586 E2.78092
G1 X114.33 Y104.434 E2.95116
G1 X113.815 Y104.427 E2.97094
G1 X108.685 Y104.486 E3.16803
G1 X104.612 Y104.702 E3.32471
G1 X103.707 Y104.771 E3.35958
G1 X101.212 Y105.006 E3.45585
G1 X98.623 Y105.334 E3.5561
G1 X96.406 Y105.697 E3.64241
G1 X95.017 Y105.976 E3.69683
G1 X93.932 Y106.227 E3.73961
G1 X93.05 Y106.459 E3.77465
G1 X92.222 Y106.706 E3.80784
G1 X91.549 Y106.931 E3.8351
G1 X90.873 Y107.19 E3.86291
G1 X90.331 Y107.425 E3.8856
G1 X89.947 Y107.614 E3.90205
G1 X89.595 Y107.81 E3.91752
G1 X89.131 Y108.106 E3.93867
G1 X88.788 Y108.377 E3.95546
G0 F4800 X88.959 Y108.829
G1 F1500 X88.755 Y109.136 E3.96962
G1 X88.658 Y109.423 E3.98126
G1 X88.544 Y110.004 E4.004
G1 X88.594 Y110.372 E4.01827
G1 X88.668 Y110.643 E4.02906
G1 X88.837 Y111.004 E4.04437
G1 X89.043 Y111.227 E4.05603
G1 X89.395 Y111.512 E4.07343
G1 X89.805 Y111.787 E4.0924
G1 X90.471 Y112.131 E4.12119
G1 X90.903 Y112.323 E4.13936
G1 X91.565 Y112.583 E4.16668
G1 X92.335 Y112.846 E4.19793
G1 X92.838 Y112.999 E4.21813
G1 X93.755 Y113.251 E4.25467
G1 X95.214 Y113.595 E4.31225
G1 X96.251 Y113.802 E4.35287
G1 X97.302 Y113.99 E4.39389
G1 X99.958 Y114.381 E4.49702
G1 X100.79 Y114.481 E4.52921
G1 X104.526 Y114.828 E4.67335
G1 X107.751 Y115.016 E4.79745
G1 X111.233 Y115.109 E4.93126
G1 X114.719 Y115.098 E5.06518
G1 X118.901 Y114.944 E5.22594
G1 X121.688 Y114.751 E5.33326
G1 X125.124 Y114.392 E5.46597
G1 X127.59 Y114.037 E5.56168
G1 X128.657 Y113.854 E5.60327
G1 X130.242 Y113.533 E5.66539
G1 X131.233 Y113.3 E5.7045
G1 X132.031 Y113.088 E5.73622
G1 X132.753 Y112.876 E5.76513
G1 X133.404 Y112.661 E5.79147
G1 X134.197 Y112.368 E5.82394
G1 X134.558 Y112.08 E5.84168
G1 X134.801 Y111.741 E5.8577
G1 X134.904 Y111.455 E5.86938
G1 X135.02 Y110.921 E5.89037
G1 X135.02 Y109.147 E5.95852
G1 X134.978 Y108.839 E5.97047
G1 X134.819 Y108.262 E5.99346
G1 X134.634 Y107.963 E6.00696
G1 X134.412 Y107.756 E6.01862
G1 X134.145 Y107.613 E6.03026
G1 X133.387 Y107.331 E6.06133
G1 X132.519 Y107.052 E6.09635
G1 X131.371 Y106.735 E6.14211
G1 X129.909 Y106.392 E6.19979
G1 X127.824 Y106 E6.28129
G1 X126.2 Y105.752 E6.3444
G1 X123.696 Y105.441 E6.44133
G1 X120.003 Y105.125 E6.58372
G1 X118.699 Y105.046 E6.63391
G1 X114.289 Y104.895 E6.80342
G1 X113.809 Y104.889 E6.82186
G1 X108.758 Y104.946 E7.01591
G1 X104.611 Y105.165 E7.17544
G1 X103.72 Y105.233 E7.20977
G1 X101.219 Y105.47 E7.30627
G1 X98.697 Y105.79 E7.40393
G1 X96.48 Y106.153 E7.49024
G1 X95.075 Y106.436 E7.54529
G1 X94.049 Y106.674 E7.58575
G1 X93.167 Y106.906 E7.62079
G1 X92.318 Y107.16 E7.65483
G1 X91.696 Y107.369 E7.68004
G1 X91.039 Y107.621 E7.70707
G1 X90.533 Y107.841 E7.72827
G1 X90.172 Y108.018 E7.74371
G1 X89.755 Y108.253 E7.7621
G1 X89.45 Y108.45 E7.77605
G1 X88.959 Y108.829 E7.79988
G0 F4800 X89.58 Y109.518
G1 F1500 X89.471 Y110.076 E7.82172
G1 X89.578 Y110.47 E7.8374
G1 X89.891 Y110.731 E7.85306
G1 X90.267 Y110.985 E7.87049
G1 X90.849 Y111.288 E7.89569
G1 X91.241 Y111.463 E7.91219
G1 X91.913 Y111.727 E7.93992
G1 X92.605 Y111.962 E7.968
G1 X93.083 Y112.108 E7.9872
G1 X94.008 Y112.362 E8.02405
G1 X95.396 Y112.689 E8.07883
G1 X96.414 Y112.892 E8.1187
G1 X97.436 Y113.076 E8.15859
G1 X100.069 Y113.463 E8.26083
G1 X100.876 Y113.561 E8.29206
G1 X104.58 Y113.906 E8.43497
G1 X107.776 Y114.092 E8.55795
G1 X111.231 Y114.185 E8.69072
G1 X114.685 Y114.175 E8.82341
G1 X118.837 Y114.022 E8.98302
G1 X121.592 Y113.832 E9.0891
G1 X125.037 Y113.472 E9.22217
G1 X127.434 Y113.127 E9.3152
G1 X128.474 Y112.948 E9.35574
G1 X130.031 Y112.634 E9.41675
G1 X130.996 Y112.407 E9.45484
G1 X131.771 Y112.202 E9.48563
G1 X132.464 Y111.998 E9.51338
G1 X133.083 Y111.795 E9.53841
G1 X133.732 Y111.555 E9.56499
G1 X133.985 Y111.332 E9.57795
G1 X134.091 Y110.845 E9.59709
G1 X134.096 Y109.114 E9.66359
G1 X133.932 Y108.521 E9.68723
G1 X133.105 Y108.211 E9.72115
G1 X132.228 Y107.929 E9.75654
G1 X131.159 Y107.634 E9.79914
G1 X129.739 Y107.3 E9.85518
G1 X127.684 Y106.914 E9.93551
G1 X126.086 Y106.669 E9.99761
G1 X123.617 Y106.362 E10.09319
G1 X119.946 Y106.047 E10.23473
G1 X118.668 Y105.969 E10.28392
G1 X114.278 Y105.819 E10.45266
G1 X113.798 Y105.813 E10.4711
G1 X108.759 Y105.87 E10.66469
G1 X104.681 Y106.087 E10.82157
G1 X103.807 Y106.153 E10.85524
G1 X101.335 Y106.387 E10.95063
G1 X98.847 Y106.702 E11.04697
G1 X96.621 Y107.067 E11.13362
G1 X95.284 Y107.336 E11.18601
G1 X94.284 Y107.568 E11.22545
G1 X93.395 Y107.802 E11.26076
G1 X92.612 Y108.036 E11.29216
G1 X91.981 Y108.248 E11.31773
G1 X91.362 Y108.487 E11.34322
G1 X90.936 Y108.672 E11.36106
G1 X90.622 Y108.825 E11.37448
G1 X90.257 Y109.029 E11.39054
G1 X89.952 Y109.226 E11.40449
G1 X89.58 Y109.518 E11.42266
G0 F4800 X89.361 Y109.102
G1 F1500 X89.142 Y109.354 E11.43548
G1 X89.028 Y109.934 E11.45819
G1 X89.039 Y110.251 E11.47038
G1 X89.147 Y110.648 E11.48618
G1 X89.339 Y110.872 E11.49751
G1 X89.652 Y111.128 E11.51305
G1 X90.009 Y111.368 E11.52957
G1 X90.66 Y111.71 E11.55782
G1 X91.042 Y111.881 E11.5739
G1 X91.734 Y112.153 E11.60246
G1 X92.449 Y112.397 E11.63149
G1 X92.942 Y112.548 E11.65129
G1 X93.902 Y112.812 E11.68954
G1 X95.282 Y113.137 E11.74401
G1 X96.319 Y113.345 E11.78464
G1 X97.348 Y113.529 E11.82479
G1 X99.996 Y113.92 E11.92762
G1 X100.814 Y114.019 E11.95927
G1 X104.529 Y114.365 E12.1026
G1 X107.742 Y114.553 E12.22624
G1 X111.211 Y114.647 E12.35956
G1 X114.679 Y114.637 E12.49278
G1 X118.846 Y114.485 E12.65296
G1 X121.616 Y114.293 E12.75963
G1 X125.076 Y113.932 E12.89327
G1 X127.494 Y113.585 E12.98711
G1 X128.545 Y113.405 E13.02807
G1 X130.115 Y113.088 E13.0896
G1 X131.095 Y112.859 E13.12826
G1 X131.884 Y112.65 E13.15962
G1 X132.587 Y112.444 E13.18776
G1 X133.22 Y112.236 E13.21336
G1 X133.892 Y111.988 E13.24087
G1 X134.152 Y111.818 E13.25281
G1 X134.418 Y111.513 E13.26835
G1 X134.558 Y110.869 E13.29367
G1 X134.558 Y109.053 E13.36343
G1 X134.374 Y108.386 E13.39001
G1 X134.132 Y108.102 E13.40435
G1 X133.277 Y107.782 E13.43942
G1 X132.378 Y107.492 E13.47571
G1 X131.291 Y107.191 E13.51903
G1 X129.855 Y106.852 E13.57572
G1 X127.777 Y106.461 E13.65694
G1 X126.162 Y106.213 E13.71971
G1 X123.683 Y105.904 E13.81568
G1 X119.991 Y105.588 E13.95803
G1 X118.702 Y105.508 E14.00764
G1 X114.299 Y105.357 E14.17688
G1 X113.804 Y105.351 E14.1959
G1 X108.763 Y105.408 E14.38957
G1 X104.661 Y105.625 E14.54737
G1 X103.777 Y105.692 E14.58142
G1 X101.299 Y105.926 E14.67704
G1 X98.797 Y106.242 E14.77392
G1 X96.555 Y106.609 E14.86119
G1 X95.199 Y106.882 E14.91433
G1 X94.187 Y107.116 E14.95423
G1 X93.285 Y107.353 E14.99006
G1 X92.487 Y107.591 E15.02205
G1 X91.843 Y107.807 E15.04814
G1 X91.205 Y108.052 E15.0744
G1 X90.761 Y108.244 E15.09298
G1 X90.397 Y108.422 E15.10854
G1 X90.006 Y108.641 E15.12576
G1 X89.647 Y108.876 E15.14224
G1 X89.361 Y109.102 E15.15625
;;retract move;;
G1 F3840 X89.142 Y109.354 E14.96625
G1 X89.028 Y109.934 E14.77625
G1 X89.039 Y110.251 E14.58625
G1 X89.147 Y110.648 E14.39625
G1 X89.339 Y110.872 E14.20625
G1 X89.38 Y110.905 E14.01625
G1 F1800 E13.95625
;MESH:0_0
G0 F4800 X90.494 Y109.999 Z0.6
;TYPE:WALL-INNER
G1 F600 Z0.2
G1 F1800 E15.15625
G1 X90.74 Y109.836 E15.16779
G1 X91.05 Y109.663 E15.18167
G1 X91.323 Y109.53 E15.19354
G1 X91.739 Y109.349 E15.21128
G1 X92.32 Y109.128 E15.23559
G1 X92.864 Y108.944 E15.25804
G1 X93.638 Y108.711 E15.28965
G1 X94.512 Y108.479 E15.32501
G1 X95.491 Y108.255 E15.36428
G1 X96.797 Y107.992 E15.41637
G1 X98.99 Y107.632 E15.50326
G1 X101.443 Y107.321 E15.59995
G1 X103.864 Y107.092 E15.69503
G1 X104.711 Y107.027 E15.72825
G1 X108.795 Y106.81 E15.88817
G1 X113.756 Y106.754 E16.08216
G1 X114.259 Y106.759 E16.10183
G1 X118.626 Y106.909 E16.27269
G1 X119.882 Y106.986 E16.32189
G1 X123.521 Y107.298 E16.4647
G1 X125.961 Y107.601 E16.56084
G1 X127.495 Y107.837 E16.62153
G1 X129.52 Y108.215 E16.70208
G1 X130.902 Y108.539 E16.75758
G1 X131.979 Y108.837 E16.80128
G1 X132.757 Y109.087 E16.83323
G1 X133.153 Y109.233 E16.84973
G1 X133.156 Y110.765 E16.90964
G1 X132.778 Y110.904 E16.92538
G1 X132.198 Y111.096 E16.94927
G1 X131.528 Y111.293 E16.97658
G1 X130.763 Y111.497 E17.00754
G1 X129.853 Y111.711 E17.04409
G1 X128.298 Y112.024 E17.10611
G1 X127.283 Y112.197 E17.14637
G1 X124.962 Y112.533 E17.23807
G1 X121.506 Y112.895 E17.37395
G1 X118.733 Y113.086 E17.48263
G1 X114.661 Y113.235 E17.64196
G1 X111.239 Y113.245 E17.77577
G1 X107.813 Y113.152 E17.90978
G1 X104.646 Y112.967 E18.03382
G1 X100.972 Y112.625 E18.1781
G1 X100.223 Y112.534 E18.20761
G1 X97.584 Y112.146 E18.3119
G1 X96.606 Y111.97 E18.35076
G1 X95.591 Y111.767 E18.39123
G1 X94.266 Y111.458 E18.44443
G1 X93.359 Y111.208 E18.48122
G1 X92.875 Y111.06 E18.50101
G1 X92.28 Y110.856 E18.5256
G1 X91.614 Y110.598 E18.55353
G1 X91.262 Y110.441 E18.5686
G1 X90.737 Y110.168 E18.59174
G1 X90.494 Y109.999 E18.60331
;;retract move;;
G1 F3840 X90.74 Y109.836 E18.37531
G1 X91.05 Y109.663 E18.14731
G1 X91.323 Y109.53 E17.91931
G1 X91.739 Y109.349 E17.69131
G1 X92.294 Y109.138 E17.46331
G1 F1800 E17.40331
G0 F4800 X89.997 Y110.246 Z0.6
;TYPE:WALL-OUTER
G1 F600 Z0.2
G1 F1800 E18.60331
G1 X89.946 Y110.058 E18.61042
G1 X90.001 Y109.774 E18.62098
G1 X90.215 Y109.607 E18.63089
G1 X90.519 Y109.411 E18.64409
G1 X90.86 Y109.222 E18.65832
G1 X91.115 Y109.1 E18.66863
G1 X91.569 Y108.902 E18.68671
G1 X92.15 Y108.681 E18.70939
G1 X92.756 Y108.476 E18.73274
G1 X93.501 Y108.253 E18.76112
G1 X94.398 Y108.015 E18.79499
G1 X95.414 Y107.782 E18.83303
G1 X96.667 Y107.53 E18.87967
G1 X98.921 Y107.159 E18.96304
G1 X101.391 Y106.846 E19.0539
